svg/fluentui-system-icons/ic_fluent_location_20_filled.svg

<svg width="20" height="20" viewBox="0 0 20 20" fill="none" xmlns="http://www.w3.org/2000/svg">
<path d="M14.9497 13.955C17.6834 11.2201 17.6834 6.78601 14.9497 4.05115C12.2161 1.31628 7.78392 1.31628 5.05025 4.05115C2.31658 6.78601 2.31658 11.2201 5.05025 13.955L6.57128 15.4538L8.61408 17.4389L8.74691 17.5567C9.52168 18.1847 10.6562 18.1455 11.3861 17.4391L13.8223 15.0691L14.9497 13.955ZM10 12C8.34315 12 7 10.6569 7 9C7 7.34315 8.34315 6 10 6C11.6569 6 13 7.34315 13 9C13 10.6569 11.6569 12 10 12Z" fill="#212121"/>
</svg>

<svg xmlns="http://www.w3.org/2000/svg" width="20" height="20"><path d="M14.95 13.955a7.005 7.005 0 0 0 0-9.904 6.998 6.998 0 0 0-9.9 0 7.005 7.005 0 0 0 0 9.904l1.521 1.499 2.043 1.985.133.118c.775.628 1.91.588 2.64-.118l2.435-2.37 1.128-1.114ZM10 12a3 3 0 1 1 0-6 3 3 0 0 1 0 6Z"/></svg>
